X:1
T:Se gia fatto Pittore
T:Luca Marenzio
T:Source : Il terzo libro delle Villanelle a tre voci---Venetia---G.Vincenzi---1587. Editor : André Vierendeels (30/05/17).
T:Notes : Original clefs :  C1, C2, F4 Editorial accidentals above the staff
T:Se gia fatto Pittore
T:©
T:©
C:Luca Marenzio
Z:©
%%score [ 1 2 3 ]
L:1/8
Q:1/4=120
M:4/4
K:C
V:1 treble nm="Soprano 1" snm="S 1"
V:2 treble nm="Soprano 2" snm="S 2"
V:3 bass nm="Bass" snm="B"
V:1
 G8 | G4 G2 G2- | G2 G2 A4 | A4 z2 A2 | B2 c2 d2 B2 | c2 d2 e2 c2 | d8 |[M:2/4] c4 :: %8
w: Se'n|gia fat- to|_ Pit- to-|re, hor|que- sta'hor quel- la|ri- tra- hen- do'A-|mo-|re,|
w: Ma|l'a- mo- ro-|* so De-|a, che|cio dal ter- zo|ciel tut- to scor-|ge-|a,|
[M:4/4] z2 e2 d3 c | B2 d2 c3 B | A2 c2 B4 | G2 B2 A3 G | F2 A2 G3 G | c2 B2 A4 | A4 B4- | B4 c4- | %16
w: e va- go'al|fin d'ha- ver mia|Fil- li se-|co, e va- go'al|fin d'ha- ver mia|Fil- li se-|co, di-|* ven-|
w: vo- lar lo|fe- ce ne be-|gli'oc- chi suo-|i, vo- lar le|fe- ce ne be-|gli'oc- chi suo-|i, _|_ go'al|
 c4 d4- | d4 e4- | e4 d4 | D2 E2 F2 G2 | A6 B2 | c4 B4 | G2 A2 B2 c2 | d2 cB A2 G2 | %24
w: * ne'ar-|* den-|* do|nel ri- trar- la|cie- *|co, nel|ri- trar- la cie-||
w: _ fin|_ d'ha|_ a-|ven- ta fiam- me'a|no- *|i, a-|ven- ta fiam- me'à|no- * * * *|
 A4 !fermata!G4 :| %25
w: * co.|
w: * i|
V:2
 D8 | E4 D2 E2- | E2 G2 ^F4 | ^F2 F2 G2 A2 | G4 F4 | E2 G2 G2 A2 | B2 c4 B2 |[M:2/4] c4 :: %8
w: Se'n|gia fat- to|_ Pit- to-|re, hor que- sta'hor|quel- la|ri- tra- hen- do'A-|mo- * *|re,|
w: Las-|so io l'so|_ ch'un gior-|no, mi- ran- di|lie- to'il|suo bel vi- so'a-|dor- * *|no,|
[M:4/4] z2 c2 B3 A | G2 B2 A3 G | F2 A2 G4 | E2 G2 F3 E | D2 F2 E3 D | E2 G2 ^F4 | ^F4 z2 G2 | %15
w: e va- go'al|fin d'ha- ver mia|Fil- li se-|co, e va- go'al|fin d'ha- ver mia|Fil- li se-|co, di-|
w: Mos- s'el- la'il|guar- do'e con le|lu- ci bel-|le, mos- s'el- la'il|guar- do'e b- con|lu- vi bel-|le, mil-|
 G2 G2 E4 | E2 A2 A4- | A2 B2 c4- | c4 B4- | B2 AG A4 | z4 C2 D2 | E2 F2 G4 | D4 z4 | %23
w: ven- ne'ar- den-|do, di- ven-|* ne'ar- den-||* * * do,|nel ri-|trar- la cie-|co,|
w: li'a- ven- tom-|mi'al cor cru-|* de fiam-|* mel-|* * * le,|cru- de|fiam- mel- *|le,|
 D2 E2 ^F2 G2- | G2 ^F2 !fermata!G4 :| %25
w: nel ri- trar- la|_ cie- co.|
w: cru- de fiam- mel-|* * le|
V:3
 G,8 | E,4 B,,2 C,2- | C,2 E,2 D,4 |"^-natural" D,2 D,2 E,2 F,2 | G,2 E,2 F,2 G,2 | %5
w: Se'n|gia fat- to|_ Pit- to-|re, hor que- sta,|hor quel- la ri-|
w: Pe-|ro s'ha- ve-|* te'a- man-|ti, ti- mor spar-|ge- te'al ciel so-|
 A,2 B,2 C3 B,/A,/ | G,2 F,2 G,4 |[M:2/4] C,4 ::[M:4/4] z4 G,4- | G,4 F,4- | F,4 E,4- | E,4 D,4 | %12
w: tra- hen- do'A- * *|mo- * *|re,|e|_ van-|* go'al|_ fin|
w: spi- ri'e pian- * *||ti,|pre|_ gan-|* do-|* l'o|
 D,4 C,3 B,, | A,,2 G,,2 D,4 | D,4 z2 G,2 | G,2 G,2 A,B,CB, | A,G,F,E, D,4 | D,2 G,2 C,B,,A,,B,, | %18
w: d'ha- ver mia|fil- li se-|co, di-|ven- ne'ar- den- * * *||do, ar- den- * * *|
w: ch'à lui la|lu- ce di-|a, O|che men cru- * * *||da, men cru- * * *|
 C,D,E,F, G,4 | G,4 D,2 E,2 | F,2 G,2 A,4- | A,4 G,4- | G,4 G,,2 A,,2 | B,,2 C,2 D,4- | %24
w: |do nel ri-|trar la cie-|* co,|_ nel ti-|trar la cie-|
w: |da la mia|FIL- LI si-|* a,|_ la mia|FIL LI si-|
 D,4 !fermata!G,,4 :| %25
w: * co.|
w: * a.|

